public/assets/svg/passport.svg

<svg xmlns="http://www.w3.org/2000/svg" width="35.2" height="48" viewBox="0 0 35.2 48"><path fill="#444" d="M31.9 5V4c0-2.2-1.7-4-3.7-4H28L.8 4.9c-.1 0-.1 0-.1.1H.6.5s0 .1-.1.1l-.1.1-.1.1c0 .1-.1.1-.1.1 0 .1-.1.1-.1.1 0 .1 0 .1-.1.1 0 .1 0 .1-.1.1V47c0 .6.5 1 1 1H31c2.2 0 4-1.8 4-4V8.9c.1-1.9-1.3-3.6-3.1-3.9zm-3.7-3c.9.1 1.6.9 1.6 2v.9H12.3L28.2 2zm4.9 42c0 1.1-.9 2-2 2H1.9V7h29.2c1.1 0 2 .9 2 2v35z"/><path fill="#444" d="M24.2 13.8l-.2-.2c-1.7-1.4-3.8-2.3-6.2-2.3h-.4c-2.5 0-4.8.9-6.5 2.3l-.2.2c-2.1 1.9-3.5 4.6-3.5 7.7 0 3 1.3 5.8 3.5 7.6 0 0 0 .1.1.1.1.1.2.2.3.2 1.8 1.4 4 2.3 6.5 2.3h.4c2.3-.1 4.4-.9 6.1-2.3.1-.1.2-.1.3-.2 0 0 0-.1.1-.1 2.1-1.9 3.5-4.6 3.5-7.6-.3-3.1-1.6-5.9-3.8-7.7zm-.3 6.6c-.1-1.6-.4-3.1-.9-4.4.1-.1.3-.2.4-.2 1.2 1.2 2 2.8 2.2 4.6h-1.7zm-3.6-5.3c-.6.2-1.1.3-1.8.4v-2c.7.3 1.3.9 1.8 1.6zm-3.8-1.5v1.9c-.5-.1-1.1-.2-1.5-.4.4-.6.9-1.2 1.5-1.5zm0 4v2.8h-3.1c.1-1.2.3-2.4.7-3.4.7.3 1.5.5 2.4.6zm0 4.9v2.9c-.9.1-1.7.3-2.5.5-.4-1-.6-2.2-.7-3.4h3.2zm0 4.9v1.9c-.6-.3-1.1-.8-1.5-1.5.4-.2 1-.3 1.5-.4zm2 2v-2c.6.1 1.2.2 1.7.4-.4.8-1 1.4-1.7 1.6zm0-4v-2.9h3.4c-.1 1.3-.3 2.5-.7 3.5-.9-.4-1.8-.6-2.7-.6zm0-5v-2.8c.9-.1 1.8-.3 2.6-.6.4 1 .6 2.2.7 3.5h-3.3zm-6.9-4.6c.2.1.4.2.5.3-.5 1.3-.8 2.7-.9 4.3H9.5c.2-1.8 1-3.4 2.1-4.6zm-2.1 6.7h1.9c.1 1.6.4 3 .9 4.3-.2.1-.4.2-.5.3-1.3-1.2-2.1-2.8-2.3-4.6zm13.8 4.6c-.1-.1-.2-.1-.3-.2.5-1.3.9-2.8.9-4.4h1.7c-.2 1.8-1 3.4-2.3 4.6zM22.1 34.4h-9.2c-.6 0-1 .5-1 1v5.2c0 .6.5 1 1 1h9.2c.6 0 1-.5 1-1v-5.2c0-.5-.4-1-1-1zM18 36.5v3.2h-1v-3.2h1zm-4.1 0h1v3.2h-1v-3.2zm7.2 3.1h-1v-3.2h1v3.2z"/></svg>

<svg version="1.1"
	 xmlns="http://www.w3.org/2000/svg" xmlns:xlink="http://www.w3.org/1999/xlink" xmlns:a="http://ns.adobe.com/AdobeSVGViewerExtensions/3.0/"
	 x="0px" y="0px" width="35.2px" height="48px" viewBox="0 0 35.2 48" enable-background="new 0 0 35.2 48" xml:space="preserve">
<defs>
</defs>
<path fill="#444444" d="M31.9,5V4c0-2.2-1.7-4-3.7-4c-0.1,0-0.1,0-0.2,0L0.8,4.9l0,0c-0.1,0-0.1,0-0.1,0.1H0.6C0.6,5,0.6,5,0.5,5
	C0.5,5,0.5,5.1,0.4,5.1L0.4,5.1L0.3,5.2L0.3,5.2L0.2,5.3c0,0.1-0.1,0.1-0.1,0.1c0,0.1-0.1,0.1-0.1,0.1c0,0.1,0,0.1-0.1,0.1
	c0,0.1,0,0.1-0.1,0.1c0,0.1,0,0.1,0,0.1c0,0.1,0,0.1,0,0.1l0,0V47c0,0.6,0.5,1,1,1h30.2c2.2,0,4-1.8,4-4V8.9C35.1,7,33.7,5.3,31.9,5
	z M28.2,2c0.9,0.1,1.6,0.9,1.6,2v0.9H12.3L28.2,2z M33.1,44c0,1.1-0.9,2-2,2H1.9V7h29.2c1.1,0,2,0.9,2,2V44z"/>
<path fill="#444444" d="M24.2,13.8c-0.1-0.1-0.1-0.1-0.2-0.2c-1.7-1.4-3.8-2.3-6.2-2.3c-0.1,0-0.1,0-0.2,0h-0.1h-0.1
	c-2.5,0-4.8,0.9-6.5,2.3c-0.1,0.1-0.1,0.1-0.2,0.2l0,0c-2.1,1.9-3.5,4.6-3.5,7.7c0,3,1.3,5.8,3.5,7.6c0,0,0,0.1,0.1,0.1
	c0.1,0.1,0.2,0.2,0.3,0.2c1.8,1.4,4,2.3,6.5,2.3h0.1h0.1c0.1,0,0.1,0,0.2,0c2.3-0.1,4.4-0.9,6.1-2.3c0.1-0.1,0.2-0.1,0.3-0.2
	c0,0,0-0.1,0.1-0.1c2.1-1.9,3.5-4.6,3.5-7.6C27.7,18.4,26.4,15.6,24.2,13.8z M23.9,20.4c-0.1-1.6-0.4-3.1-0.9-4.4
	c0.1-0.1,0.3-0.2,0.4-0.2c1.2,1.2,2,2.8,2.2,4.6H23.9z M20.3,15.1c-0.6,0.2-1.1,0.3-1.8,0.4v-2C19.2,13.8,19.8,14.4,20.3,15.1z
	 M16.5,13.6v1.9c-0.5-0.1-1.1-0.2-1.5-0.4C15.4,14.5,15.9,13.9,16.5,13.6z M16.5,17.6v2.8h-3.1c0.1-1.2,0.3-2.4,0.7-3.4
	C14.8,17.3,15.6,17.5,16.5,17.6z M16.5,22.5v2.9c-0.9,0.1-1.7,0.3-2.5,0.5c-0.4-1-0.6-2.2-0.7-3.4H16.5z M16.5,27.4v1.9
	c-0.6-0.3-1.1-0.8-1.5-1.5C15.4,27.6,16,27.5,16.5,27.4z M18.5,29.4v-2c0.6,0.1,1.2,0.2,1.7,0.4C19.8,28.6,19.2,29.2,18.5,29.4z
	 M18.5,25.4v-2.9h3.4c-0.1,1.3-0.3,2.5-0.7,3.5C20.3,25.6,19.4,25.4,18.5,25.4z M18.5,20.4v-2.8c0.9-0.1,1.8-0.3,2.6-0.6
	c0.4,1,0.6,2.2,0.7,3.5H18.5z M11.6,15.8c0.2,0.1,0.4,0.2,0.5,0.3c-0.5,1.3-0.8,2.7-0.9,4.3H9.5C9.7,18.6,10.5,17,11.6,15.8z
	 M9.5,22.5h1.9c0.1,1.6,0.4,3,0.9,4.3c-0.2,0.1-0.4,0.2-0.5,0.3C10.5,25.9,9.7,24.3,9.5,22.5z M23.3,27.1C23.2,27,23.1,27,23,26.9
	c0.5-1.3,0.9-2.8,0.9-4.4h1.7C25.4,24.3,24.6,25.9,23.3,27.1z"/>
<path fill="#444444" d="M22.1,34.4h-9.2c-0.6,0-1,0.5-1,1v5.2c0,0.6,0.5,1,1,1h9.2c0.6,0,1-0.5,1-1v-5.2
	C23.1,34.9,22.7,34.4,22.1,34.4z M18,36.5v3.2h-1v-3.2H18z M13.9,36.5h1v3.2h-1V36.5z M21.1,39.6h-1v-3.2h1V39.6z"/>
</svg>
